public/error.svg

<svg fill="none" viewBox="0 0 474 293"><g clip-path="url(#a)"><path fill="#0B5100" d="M151.854 189v-50.909h34.304v8.874h-23.54v12.131h21.775v8.874h-21.775v12.156h23.639V189h-34.403Zm54.212 0v-38.182h10.267v6.662h.398c.696-2.37 1.864-4.159 3.505-5.369 1.64-1.227 3.529-1.84 5.667-1.84.53 0 1.102.033 1.715.1.613.066 1.152.157 1.616.273v9.396c-.497-.149-1.185-.281-2.063-.397-.878-.116-1.682-.174-2.411-.174-1.558 0-2.95.339-4.176 1.019-1.21.663-2.171 1.591-2.884 2.784-.696 1.193-1.044 2.569-1.044 4.126V189h-10.59Zm40.193 0v-38.182h10.266v6.662h.398c.696-2.37 1.864-4.159 3.505-5.369 1.641-1.227 3.53-1.84 5.668-1.84.53 0 1.102.033 1.715.1.613.066 1.152.157 1.616.273v9.396c-.497-.149-1.185-.281-2.064-.397-.878-.116-1.682-.174-2.411-.174-1.558 0-2.95.339-4.176 1.019-1.21.663-2.171 1.591-2.883 2.784-.696 1.193-1.044 2.569-1.044 4.126V189h-10.59Zm55.667.746c-3.862 0-7.201-.821-10.018-2.461-2.801-1.657-4.963-3.961-6.488-6.911-1.525-2.966-2.287-6.405-2.287-10.316 0-3.944.762-7.391 2.287-10.341 1.525-2.966 3.687-5.27 6.488-6.91 2.817-1.657 6.156-2.486 10.018-2.486 3.861 0 7.192.829 9.993 2.486 2.817 1.64 4.988 3.944 6.512 6.91 1.525 2.95 2.287 6.397 2.287 10.341 0 3.911-.762 7.35-2.287 10.316-1.524 2.95-3.695 5.254-6.512 6.911-2.801 1.64-6.132 2.461-9.993 2.461Zm.049-8.203c1.757 0 3.224-.498 4.4-1.492 1.177-1.011 2.063-2.386 2.66-4.126.613-1.74.92-3.721.92-5.941 0-2.221-.307-4.201-.92-5.941-.597-1.74-1.483-3.116-2.66-4.127-1.176-1.011-2.643-1.516-4.4-1.516-1.773 0-3.264.505-4.474 1.516-1.193 1.011-2.096 2.387-2.71 4.127-.596 1.74-.894 3.72-.894 5.941 0 2.22.298 4.201.894 5.941.614 1.74 1.517 3.115 2.71 4.126 1.21.994 2.701 1.492 4.474 1.492ZM339.154 189v-38.182h10.266v6.662h.398c.696-2.37 1.864-4.159 3.505-5.369 1.641-1.227 3.53-1.84 5.668-1.84.53 0 1.102.033 1.715.1.613.066 1.152.157 1.616.273v9.396c-.498-.149-1.185-.281-2.064-.397-.878-.116-1.682-.174-2.411-.174-1.558 0-2.95.339-4.176 1.019-1.21.663-2.171 1.591-2.884 2.784-.696 1.193-1.044 2.569-1.044 4.126V189h-10.589Z"/><path fill="#FFC803" fill-rule="evenodd" d="m134.088 119.606 9.132-3.395 8.496-2.195 5.573-.265 6.562.011 11.299-39.9538c.567.0393 1.143-.0285 1.702-.2056 2.947-.9346 4.418-4.615 3.273-8.2278-1.143-3.6032-4.461-5.7758-7.416-4.8387-2.948.9345-4.419 4.615-3.273 8.2277.451 1.4224 1.238 2.6129 2.206 3.4851l-3.761 7.3077c-5.268 10.2274-11.259 8.1613-13.576-4.3987l-1.303-7.0693c.316-.027.635-.097.946-.1953 2.947-.9346 4.418-4.6151 3.273-8.2278-1.143-3.6032-4.461-5.7758-7.416-4.8387-2.948.9345-4.419 4.615-3.273 8.2277.652 2.0577 2.019 3.6488 3.616 4.4575l-.515 2.9807c-2.718 13.9896-8.961 10.9391-14.614-.2399l-9.527-18.1738c1.6-1.6031 2.217-4.3447 1.357-7.0566-1.143-3.6033-4.461-5.7758-7.416-4.8388-2.948.9346-4.419 4.6151-3.273 8.2278.956 3.0153 3.426 5.0183 5.932 5.0588l1.263 11.6838c1.266 10.6705 5.318 31.4464-10.517 17.6624l-2.595-2.2871c.966-1.6108 1.23-3.8231.538-6.004-1.142-3.6032-4.461-5.7758-7.416-4.8387-2.947.9345-4.4183 4.615-3.273 8.2277 1.143 3.6033 4.461 5.7758 7.416 4.8388.411-.1304.796-.3152 1.148-.5519l1.764 4.3245c2.619 5.8378 6.112 13.7573.295 15.1733-2.884.706-4.319-.133-7.071-1.327l-7.8512-3.3856c.3416-1.3188.3168-2.8241-.1582-4.3223-1.1425-3.6032-4.4606-5.7757-7.4159-4.8387-2.9476.9345-4.4185 4.615-3.273 8.2277 1.1454 3.6128 4.4605 5.7759 7.4159 4.8389.6981-.221 1.3063-.592 1.8259-1.0799L125.89 125.598l3.408-2.972 4.79-3.02Z" clip-rule="evenodd"/></g><defs><clipPath id="a"><path fill="#fff" d="M0 0h474v293H0z"/></clipPath></defs></svg>

<svg width="474" height="293" viewBox="0 0 474 293" fill="none" xmlns="http://www.w3.org/2000/svg">
<g clip-path="url(#clip0_573_70)">
<path d="M151.854 189V138.091H186.158V146.965H162.618V159.096H184.393V167.97H162.618V180.126H186.257V189H151.854ZM206.066 189V150.818H216.333V157.48H216.731C217.427 155.11 218.595 153.321 220.236 152.111C221.876 150.884 223.765 150.271 225.903 150.271C226.433 150.271 227.005 150.304 227.618 150.371C228.231 150.437 228.77 150.528 229.234 150.644V160.04C228.737 159.891 228.049 159.759 227.171 159.643C226.293 159.527 225.489 159.469 224.76 159.469C223.202 159.469 221.81 159.808 220.584 160.488C219.374 161.151 218.413 162.079 217.7 163.272C217.004 164.465 216.656 165.841 216.656 167.398V189H206.066ZM246.259 189V150.818H256.525V157.48H256.923C257.619 155.11 258.787 153.321 260.428 152.111C262.069 150.884 263.958 150.271 266.096 150.271C266.626 150.271 267.198 150.304 267.811 150.371C268.424 150.437 268.963 150.528 269.427 150.644V160.04C268.93 159.891 268.242 159.759 267.363 159.643C266.485 159.527 265.681 159.469 264.952 159.469C263.394 159.469 262.002 159.808 260.776 160.488C259.566 161.151 258.605 162.079 257.893 163.272C257.197 164.465 256.849 165.841 256.849 167.398V189H246.259ZM301.926 189.746C298.064 189.746 294.725 188.925 291.908 187.285C289.107 185.628 286.945 183.324 285.42 180.374C283.895 177.408 283.133 173.969 283.133 170.058C283.133 166.114 283.895 162.667 285.42 159.717C286.945 156.751 289.107 154.447 291.908 152.807C294.725 151.15 298.064 150.321 301.926 150.321C305.787 150.321 309.118 151.15 311.919 152.807C314.736 154.447 316.907 156.751 318.431 159.717C319.956 162.667 320.718 166.114 320.718 170.058C320.718 173.969 319.956 177.408 318.431 180.374C316.907 183.324 314.736 185.628 311.919 187.285C309.118 188.925 305.787 189.746 301.926 189.746ZM301.975 181.543C303.732 181.543 305.199 181.045 306.375 180.051C307.552 179.04 308.438 177.665 309.035 175.925C309.648 174.185 309.955 172.204 309.955 169.984C309.955 167.763 309.648 165.783 309.035 164.043C308.438 162.303 307.552 160.927 306.375 159.916C305.199 158.905 303.732 158.4 301.975 158.4C300.202 158.4 298.711 158.905 297.501 159.916C296.308 160.927 295.405 162.303 294.791 164.043C294.195 165.783 293.897 167.763 293.897 169.984C293.897 172.204 294.195 174.185 294.791 175.925C295.405 177.665 296.308 179.04 297.501 180.051C298.711 181.045 300.202 181.543 301.975 181.543ZM339.154 189V150.818H349.42V157.48H349.818C350.514 155.11 351.682 153.321 353.323 152.111C354.964 150.884 356.853 150.271 358.991 150.271C359.521 150.271 360.093 150.304 360.706 150.371C361.319 150.437 361.858 150.528 362.322 150.644V160.04C361.824 159.891 361.137 159.759 360.258 159.643C359.38 159.527 358.576 159.469 357.847 159.469C356.289 159.469 354.897 159.808 353.671 160.488C352.461 161.151 351.5 162.079 350.787 163.272C350.091 164.465 349.743 165.841 349.743 167.398V189H339.154Z" fill="#0B5100"/>
<path fill-rule="evenodd" clip-rule="evenodd" d="M134.088 119.606L143.22 116.211L151.716 114.016L157.289 113.751L163.851 113.762L175.15 73.8082C175.717 73.8475 176.293 73.7797 176.852 73.6026C179.799 72.668 181.27 68.9876 180.125 65.3748C178.982 61.7716 175.664 59.599 172.709 60.5361C169.761 61.4706 168.29 65.1511 169.436 68.7638C169.887 70.1862 170.674 71.3767 171.642 72.2489L167.881 79.5566C162.613 89.784 156.622 87.7179 154.305 75.1579L153.002 68.0886C153.318 68.0616 153.637 67.9916 153.948 67.8933C156.895 66.9587 158.366 63.2782 157.221 59.6655C156.078 56.0623 152.76 53.8897 149.805 54.8268C146.857 55.7613 145.386 59.4418 146.532 63.0545C147.184 65.1122 148.551 66.7033 150.148 67.512L149.633 70.4927C146.915 84.4823 140.672 81.4318 135.019 70.2528L125.492 52.079C127.092 50.4759 127.709 47.7343 126.849 45.0224C125.706 41.4191 122.388 39.2466 119.433 40.1836C116.485 41.1182 115.014 44.7987 116.16 48.4114C117.116 51.4267 119.586 53.4297 122.092 53.4702L123.355 65.154C124.621 75.8245 128.673 96.6004 112.838 82.8164L110.243 80.5293C111.209 78.9185 111.473 76.7062 110.781 74.5253C109.639 70.9221 106.32 68.7495 103.365 69.6866C100.418 70.6211 98.9467 74.3016 100.092 77.9143C101.235 81.5176 104.553 83.6901 107.508 82.7531C107.919 82.6227 108.304 82.4379 108.656 82.2012L110.42 86.5257C113.039 92.3635 116.532 100.283 110.715 101.699C107.831 102.405 106.396 101.566 103.644 100.372L95.7928 96.9864C96.1344 95.6676 96.1096 94.1623 95.6346 92.6641C94.4921 89.0609 91.174 86.8884 88.2187 87.8254C85.2711 88.7599 83.8002 92.4404 84.9457 96.0531C86.0911 99.6659 89.4062 101.829 92.3616 100.892C93.0597 100.671 93.6679 100.3 94.1875 99.8121L125.89 125.598L129.298 122.626L134.088 119.606Z" fill="#FFC803"/>
</g>
<defs>
<clipPath id="clip0_573_70">
<rect width="474" height="293" fill="white"/>
</clipPath>
</defs>
</svg>
